X:1
T:11
T:11
T:160 Kurze Übungen op. 821
T:Carl Czerny
C:Carl Czerny
%%score { 1 | ( 2 3 ) }
L:1/8
Q:1/4=120
M:4/4
K:Bb
V:1 treble nm="Piano" snm="Pno."
V:2 treble 
V:3 treble 
V:1
"^Allegro moderato"!p! [dd']/[dd']/[dd']/[dd']/ [dd']/[dd']/[dd']/[dd']/ [ee']/[ee']/[ee']/[ee']/ [dd']/[dd']/[dd']/[dd']/ | %1
 [cc']/[cc']/[cc']/[cc']/ [cc']/[cc']/[cc']/[cc']/ [dd']/[dd']/[dd']/[dd']/ [cc']/[cc']/[cc']/[cc']/ | %2
 [Bb]/[Bb]/[Bb]/[Bb]/ [Bb]/[Bb]/[Bb]/[Bb]/ [Aa]/[Aa]/[Aa]/[Aa]/ [Bb]/[Bb]/[Bb]/[Bb]/ | %3
 [dd']/[dd']/[dd']/[dd']/ [dd']/[dd']/[dd']/[dd']/ [cc']/[cc']/[cc']/[cc']/ [cc']/[cc']/[cc']/[cc']/ | %4
 [ff']/[ff']/[=e=e']/[ee']/ [ff']/[ff']/[ee']/[ee']/ [ff']/[ff']/[gg']/[gg']/ [aa']/[aa']/[bb']/[bb']/ | %5
 [c'c'']/[c'c'']/[bb']/[bb']/ [aa']/[aa']/[gg']/[gg']/ [ff']/[ff']/[ee']/[ee']/ [dd']/[dd']/[cc']/[cc']/ | %6
 [Bb]/[Bb]/[Bb]/[Bb]/ [dd']/[dd']/[dd']/[dd']/ [^c^c']/[cc']/[dd']/[dd']/ [ee']/[ee']/[=c=c']/[cc']/ | %7
 [Bb]/[Bb]/[dd']/[dd']/ [ff']/[ff']/[dd']/[dd']/ [Bb] z z2 |] %8
V:2
 (!2!F4 G2 F2) |[K:bass] (!2!E4 F2 E2) |[K:treble] !5!!3![B,D]2 !3!!1![DF]2 !4!!2![CE]2 !3![B,D]2 | %3
[K:bass] !2!B,4 !1!A,4 | B,8 | (G,4 !2!C2 E2) |[K:bass] (!1!D2 !2!B,4) (!3!A,E | %7
 (!4!!2![B,D])F[B,D]F [B,D]) z z2 |] %8
V:3
 !5!B,8 |[K:bass] !5!!4![F,A,]8 |[K:treble] x8 |[K:bass] (!5!F,6 !3!E,2 | (!4!D,)!5!^C,D,C, D,4) | %5
 !5!!4![E,G,]8 |[K:bass] !5!F,6 !5!F,2 | x8 |] %8

